X: 19667
T: Jenn's
R: slip jig
M: 9/8
K: Dmajor
|:AB=c AB=c A2G|E2E GEA GED|ABc d2e f2d|
ged =cAG A3|dAG FAD dAG|FdF FEF G2E|
ABc d2e =fed|1 =cBA GAE D3:|2 =cBA GAE D3||
|:ABc d2e f2d|ged c2A G2E|ABc d2e f2d|
ged =cAG A3|ABG AFG EFD|EdE EDE EFG|
ABc d2e=fed|1 =cBA GAE D3:|2 =cBA GAE D3||

